dist/icons/svgs/tag-solid.svg

<svg xmlns="http://www.w3.org/2000/svg" width="24" height="24" fill="currentcolor" class="icon-tag-solid" viewBox="0 0 24 24">
  <path d="M3.25 5.12506C3.25 4.10944 4.07031 3.25006 5.125 3.28912H10.9453C11.6094 3.28912 12.2344 3.5235 12.7031 3.99225L19.5781 10.8672C20.5547 11.8438 20.5547 13.4454 19.5781 14.4219L14.3828 19.6172C13.4062 20.5938 11.8047 20.5938 10.8281 19.6172L3.95312 12.7422C3.48438 12.2735 3.25 11.6485 3.25 10.9844V5.12506ZM7.625 6.37506C6.92188 6.37506 6.375 6.961 6.375 7.62506C6.375 8.32819 6.92188 8.87506 7.625 8.87506C8.28906 8.87506 8.875 8.32819 8.875 7.62506C8.875 6.961 8.28906 6.37506 7.625 6.37506Z"/>
</svg>

<svg xmlns="http://www.w3.org/2000/svg" width="24" height="24" fill="currentColor" class="icon-tag-solid" viewBox="0 0 24 24">
  <path d="M3.25 5.125c0-1.016.82-1.875 1.875-1.836h5.82c.664 0 1.29.234 1.758.703l6.875 6.875a2.523 2.523 0 0 1 0 3.555l-5.195 5.195a2.523 2.523 0 0 1-3.555 0l-6.875-6.875c-.469-.469-.703-1.094-.703-1.758zm4.375 1.25c-.703 0-1.25.586-1.25 1.25 0 .703.547 1.25 1.25 1.25.664 0 1.25-.547 1.25-1.25 0-.664-.586-1.25-1.25-1.25"/>
</svg>
